src/24x24/places/folder-gruvbox-material-yellow-android.svg

<?xml version="1.0" encoding="UTF-8"?>
<svg width="24" height="24" version="1" xmlns="http://www.w3.org/2000/svg">
 <rect x="2" y="9.5" width="20" height="12" rx="1" ry="1" opacity=".2"/>
 <path d="m2 17c0 0.554 0.446 1 1 1h18c0.554 0 1-0.446 1-1v-11c0-0.554-0.446-1-1-1h-9c-1.5 0-2-2-3.5-2h-5.5c-0.554 0-1 0.446-1 1" fill="#b47109"/>
 <rect x="2" y="8.5" width="20" height="12" rx="1" ry="1" opacity=".2"/>
 <rect x="4" y="7" width="16" height="8" rx="1" ry="1" fill="#f9eabf"/>
 <rect x="2" y="9" width="20" height="12" rx="1" ry="1" fill="#d8a657"/>
 <path d="m3 3c-0.554 0-1 0.446-1 1v0.5c0-0.554 0.446-1 1-1h5.5c1.5 0 2 2 3.5 2h9c0.554 0 1 0.446 1 1v-0.5c0-0.554-0.446-1-1-1h-9c-1.5 0-2-2-3.5-2z" fill="#f9eabf" opacity=".1"/>
 <path d="m8 12a1 1 0 0 0-0.6973 1.717l0.6739 0.674c-0.4794 0.622-0.8409 1.52-0.9668 2.832-0.0368 0.77 0.7754 0.771 0.7754 0.771l7.4298 0.031s0.835 2e-3 0.795-0.806c-0.132-1.311-0.496-2.205-0.975-2.821l0.682-0.681a1 1 0 0 0-0.727-1.717 1 1 0 0 0-0.687 0.303l-0.961 0.961c-0.64-0.192-1.284-0.221-1.789-0.229-0.545-9e-3 -1.223 0.015-1.8889 0.215l-0.9473-0.947a1 1 0 0 0-0.7168-0.303zm1.5 3a0.5 0.5 0 0 1 0.5 0.5 0.5 0.5 0 0 1-0.5 0.5 0.5 0.5 0 0 1-0.5-0.5 0.5 0.5 0 0 1 0.5-0.5zm4 0a0.5 0.5 0 0 1 0.5 0.5 0.5 0.5 0 0 1-0.5 0.5 0.5 0.5 0 0 1-0.5-0.5 0.5 0.5 0 0 1 0.5-0.5z" fill="#574833"/>
</svg>

<svg xmlns="http://www.w3.org/2000/svg" width="24" height="24" version="1">
 <rect style="opacity:0.2" width="20" height="12" x="2" y="9.5" rx="1" ry="1"/>
 <path style="fill:#b47109" d="M 2,17 C 2,17.554 2.446,18 3,18 H 21 C 21.554,18 22,17.554 22,17 V 6 C 22,5.446 21.554,5 21,5 H 12 C 10.5,5 10,3 8.5,3 H 3 C 2.446,3 2,3.446 2,4"/>
 <rect style="opacity:0.2" width="20" height="12" x="2" y="8.5" rx="1" ry="1"/>
 <rect style="fill:#f9eabf" width="16" height="8" x="4" y="7" rx="1" ry="1"/>
 <rect style="fill:#d8a657" width="20" height="12" x="2" y="9" rx="1" ry="1"/>
 <path style="opacity:0.1;fill:#f9eabf" d="M 3,3 C 2.446,3 2,3.446 2,4 V 4.5 C 2,3.946 2.446,3.5 3,3.5 H 8.5 C 10,3.5 10.5,5.5 12,5.5 H 21 C 21.554,5.5 22,5.946 22,6.5 V 6 C 22,5.446 21.554,5 21,5 H 12 C 10.5,5 10,3 8.5,3 Z"/>
 <path style="fill:#574833" d="M 8 12 A 1 1 0 0 0 7.3027 13.717 L 7.9766 14.391 C 7.4972 15.013 7.1357 15.911 7.0098 17.223 C 6.973 17.993 7.7852 17.994 7.7852 17.994 L 15.215 18.025 C 15.215 18.025 16.05 18.027 16.01 17.219 C 15.878 15.908 15.514 15.014 15.035 14.398 L 15.717 13.717 A 1 1 0 0 0 14.99 12 A 1 1 0 0 0 14.303 12.303 L 13.342 13.264 C 12.702 13.072 12.058 13.043 11.553 13.035 C 11.008 13.026 10.33 13.05 9.6641 13.25 L 8.7168 12.303 A 1 1 0 0 0 8 12 z M 9.5 15 A 0.5 0.5 0 0 1 10 15.5 A 0.5 0.5 0 0 1 9.5 16 A 0.5 0.5 0 0 1 9 15.5 A 0.5 0.5 0 0 1 9.5 15 z M 13.5 15 A 0.5 0.5 0 0 1 14 15.5 A 0.5 0.5 0 0 1 13.5 16 A 0.5 0.5 0 0 1 13 15.5 A 0.5 0.5 0 0 1 13.5 15 z"/>
</svg>
